X:226
T:Polska fr{\aa}n \"Osterg\"otland
H:jfr #115, #127, #212, #227
B:Bagge 69
O:\"Osterg\"otland
Z:id:hn-sp-226
M:3/4
L:1/16
K:D
a4 b4 a4 | f2fg abaf agfg | f2a2 a2b2 b2a2 | fdfa agec d4 :|
|: A2d2 d2f2 f2a2 | agbg e2fg agfe | dcde fefg abaf | agec e2d2 d4 :|
<end>
<start>
